X: 439
%
T: Money Musk
C:D. Dow
C:Pipe tune
O:Scotland
B:Keith Norman MacDonald : "The Skye collection of the best reels & strathspeys extant" : 1887
Z:Ralph Palmer
R:Strathspey
M:C
L:1/8
K:A
a | eAcA eAdf | eAcA B/2G/2B df | eAcA eAce | gBed cAA ::
g | a2 ea ca (e/2f/2g) | a2 ea ca Bg | [1 a2 ea caef | ^gBed cAA :| [2 afge fdec | dBed cAA |]


